X: 20114
T: Jimmy's Close-In
R: polka
M: 2/4
K: Dmajor
DF|:A2- AB|A2 de|f2 fg|f2 ed|
Bc dB|AF DF|E2 EF|E2 DF|
A2- AB|A2 de|f2 fg|f2 ed|
Bc dB|AF EF|D2- D2|1 D2 DF:|2 D2 fg||
|:ag fg|a2- aA|dA/c/ de|f2- fF|
G2 Bc/B/|Ad DF|E2 EF|E2 DF|
A2- AB|A2 de|f2 fg|f2 ed|
Bc dB|AF EF|D2- D2|1 D2 fg:|2 D2 DF||

